X:183
T: Muede kehrt ein Wanderer zurueck
N: D1014
O: Europa, Mitteleuropa, Deutschland, Rheinland, Duesseldorf, Ittar
N: DVA-Signatur A 102 640
R: Liebes - Lied
M: 4/4
L: 1/16
K: G
D2G2 | B6A2G2F2G2A2 | D12
D2F2 | A6G2F2A2e3d | B12
G2A2 | B6d2c2B2A2c2 | E8z2
F2G2E2 | D6G2F2A2e3d | B8z4
G2A2 | B6d2c2B2A2c2 | E8z2
F2G2E2 | D6G2F2A2c3B | G8z4

